X: 24363
T: Lovat Scouts, The
R: polka
M: 2/4
K: Gmajor
|:d|GB dG|ce g>e|d>B GB|A2 d/c/B/A/|
GB dG|ce gf/e/|d>B c/B/A|G2 G:|
d/4e/4f/|gG Bd|eg ce|d>g GB|A2 Ad/4e/4f/|
gG Bd|ec ce|d>B cA|G2 Gd/4e/4f/|
gG Bd|eg ce|dg Bg|A2 d/c/B/A/|
G>B dG|ce gf/e/|d>B cA|G2- G||

